X:148
T: IM WALDE MOECHT ICH LEBEN
N: B0176A
O: Europa, Mitteleuropa, Deutschland
R: Natur - Lied, Wald
M: 4/4
L: 1/8
K: F
C2 | F2G2A2B2 | c3dc2
A2 | B2A2B2c2 | A4z2
AB | c2c2c2Bc | d3ef2
ed | c2A2cBAG | F4z2
c2 | c2ABc2Bc | d3ef2
ed | c2f2g2e2 | f4z2

@@@ Tune index: 1951
